X:1
T:Title
%%score ( 1 2 ) ( 3 4 )
L:1/8
Q:1/4=94
M:4/4
K:A
V:1 treble nm="Grand Piano, Soprano"
V:2 treble 
V:3 bass nm="Choir Pad, Bass"
V:4 bass 
V:1
 [A,C][B,D][CE][CE] [=C^D][^CE][=DF][CE] | [A,C][CE][CA][CA] [CA][DB] [CA]2 | %2
w: By~Adam~Geibel * * * * * * *||
 [DA][DB][Ec][Ec] [Ec][Ec][Ee][Ec] | [Ec][EA] [EB]6 | [A,C][B,D][CE][CE] [=C^D][^CE][=DF][CE] | %5
w: |||
 [A,C][CE][CA][CA] [DA][DB] [CA]2 | [EA][EB][Ec][Ec] [Ec][Ec][Ee][Ec] | [Ec]>[DB] [CA]6 | %8
w: |||
 [=GB][Gc] [Fd]2 [Fd]>[Fd] [Fd][^E^G] | [^EA][EB][=Ed][Ec]- [Ec]3/2 z/ z2 | %10
w: ||
 [Ec]>[Ec] [Ae]2 [Ec]>[EB] [EA][EA] | [EG][EA][Ac][GB]- [GB]3/2 z/ z2 | %12
w: ||
 [DE][DE][CA][CA] [CA][CA] [Ec]2 | [=Gc][Gc][Fe][Fd] [Fd][DF] [FA]2 | %14
w: ||
 [FA][^EB][=Ec][Ec] [Ec][Ec][Ee][Ec] | z2 A6- | A6 z2 |] %17
w: |||
V:2
 x8 | x8 | x8 | x8 | x8 | x8 | x8 | x8 | x8 | x8 | x8 | x8 | x8 | x8 | x8 | [Ec]>[DB] C2 DD C2- | %16
 C6 z2 |] %17
V:3
 [A,,E,][A,,E,][A,,A,][A,,A,] [A,,A,][A,,A,][A,,A,][A,,A,] | %1
 [A,,E,][A,,A,][A,,E,][A,,E,] [D,F,][D,F,] [A,,E,]2 | [C,A,][E,G,]A,A, A,A,[A,C]A, | z2 G,6 | %4
 [A,,E,][A,,E,][A,,A,][A,,A,] [A,,A,][A,,A,][A,,A,][A,,A,] | %5
 [A,,E,][A,,A,][A,,E,][A,,E,] [D,F,][D,F,] [A,,E,]2 | [C,A,][E,G,]A,A, A,A,[A,C]A, | %7
 [E,G,]>E, [A,,E,]6 | A,A, [D,A,]2 [D,A,]>[D,A,] [D,A,][D,A,] | %9
 [D,A,][D,A,][A,,A,][A,,A,]- [A,,A,]3/2 z/ z2 | A,>[A,C] [A,C]2 [A,E]>[A,D] [A,C][A,C] | %11
 [B,D][A,C][E,E][E,E]- [E,E]3/2 z/ z2 | [E,G,][E,G,][A,,A,][A,,A,] [A,,A,][A,,A,] [A,,A,]2 | %13
 A,A,[D,A,][D,A,] [D,A,][D,A,] [D,A,]2 | [D,A,][D,A,][E,A,][E,A,] [E,A,][E,A,][E,C][E,A,] | %15
 [E,G,]>E, [A,,E,]2 [D,F,][D,F,] [A,,E,]2- | [A,,E,]6 z2 |] %17
V:4
 x8 | x8 | x8 | [A,,A,][C,A,] E,2 E,E, E,2 | x8 | x8 | x8 | x8 | x8 | x8 | x8 | x8 | x8 | x8 | x8 | %15
 x8 | x8 |] %17

